X:1
T:Title
%%score 1 2 3
L:1/8
M:3/2
K:C
V:1 treble nm="Part_1"
V:2 treble-8 nm="Part_2"
V:3 treble-8 nm="Part_3"
V:1
 G4 c6 _B2 | A4 G4 F4 | G2 A2 B2 c4 A2 | c2 _B2 G2 A2 ^F2 EF | G4 z4 _B2 c2 | d6 c2 A4 | %6
 _B2 c4 B2 A3 G | _B8 z4 | d4 _B2 A2 c4 | d2 e2 d2 c4 B2 | c8 _B4 | A4 G6 F2 | A4 z4 A4 | %13
 A6 G2 A4 | c6 _B2 A4 | G8 ^F4 | G4 z4 G4 | E2 F2 G6 F2 | F4 E8 | D4 ^C6 B,2 | D8 z4 | G4 G6 F2 | %22
 A2 B2 c6 A2 | B2 c2 d4 B2 A2 | G2 FG A2 F4 E2 | G12 |] %26
V:2
 g4 e4 c2 d2- | d2 d4 c2 d4 | e4 f2 g4 f2 | e4 d4 ^c4 | d8 g4 | f4 z4 f4 | d2 e2 f4 e4 | f4 z4 z4 | %8
 d4 f4 g4 | d2 c2 g4 f4 | g4 z4 f4 | e4 d8 | e8 e4 | f4 z4 z4 | g4 f4 e4 | d8 c4 | d4 B8 | %17
 c4 B2 d4 c2 | d4 B8 | A4 B2 A2 G4 | A8 z4 | e4 d6 c2 | d2 f2 g8 | g4 z4 e2 f2 | d2 e4 d2 c3 B | %25
 d12 |] %26
V:3
[K:F] c8 A2 G2 | F4 E4 D4 | c4 d2 c2 e2 d2 | c4 B4 A4 | G8 G4 | B6 c2 d4 | B2 A2 d4 c4 | B8 d4 | %8
 f4 d4 c4 | f2 g2 e4 d4 | c8 d4 | c4 B8 | A8 c4 | d6 e2 f4 | e4 d4 c4 | B4 G4 A4 | G8 G4 | A4 G8 | %18
 D4 G8 | F4 G2 D2 E4 | D8 z4 | E4 G4 B2 A2 | c2 d2 c8 | G8 G2 F2 | G2 c4 B2 A4 | G12 |] %26

